icons/black/microsoft_company_portal.svg

<?xml version="1.0" encoding="UTF-8" standalone="no"?>
<svg
   viewBox="0 0 48 48"
   version="1.1"
   id="svg8"
   xml:space="preserve"
   xmlns="http://www.w3.org/2000/svg"
   xmlns:svg="http://www.w3.org/2000/svg"><defs
     id="defs4"><style
       id="style2">.a{stroke-width:2px;stroke-width:2px;fill:none;stroke:#000;stroke-linecap:round;stroke-linejoin:round;}</style><style
       id="style822">.cls-1{stroke-width:2px;fill:none;stroke:#000;stroke-linecap:round;stroke-linejoin:round;}</style><style
       id="style913">.cls-1{stroke-width:2px;fill:none;stroke:#000;stroke-linecap:round;stroke-linejoin:round;}</style></defs><path
     id="rect650"
     style="opacity:1;vector-effect:none;fill:none;fill-rule:evenodd;stroke:#000;stroke-width:1;stroke-linecap:round;stroke-linejoin:round;stop-color:#000000;stop-opacity:1"
     d="M 10.22325,32.383181 H 6.5405403 c -0.5689729,0 -1.027027,-0.458054 -1.027027,-1.027027 V 7.7345324 c 0,-0.568973 0.4580541,-1.027027 1.027027,-1.027027 H 41.459458 c 0.568973,0 1.027027,0.458054 1.027027,1.027027 V 31.356154 c 0,0.568973 -0.458054,1.027027 -1.027027,1.027027 H 26.256032" /><circle
     style="font-variation-settings:normal;opacity:1;vector-effect:none;fill:none;fill-opacity:1;fill-rule:evenodd;stroke:#000;stroke-width:1;stroke-linecap:round;stroke-linejoin:round;stroke-miterlimit:4;stroke-dasharray:none;stroke-dashoffset:0;stroke-opacity:1;-inkscape-stroke:none;stop-color:#000000;stop-opacity:1"
     id="path652"
     cx="18.394476"
     cy="20.831093"
     r="6.1621618" /><path
     style="font-variation-settings:normal;opacity:1;vector-effect:none;fill:none;fill-opacity:1;stroke:#000;stroke-width:1;stroke-linecap:round;stroke-linejoin:round;stroke-miterlimit:4;stroke-dasharray:none;stroke-dashoffset:0;stroke-opacity:1;-inkscape-stroke:none;stop-color:#000000;stop-opacity:1"
     d="M 8.0639084,41.292493 H 28.479018 c 0.995798,-17.147562 -21.246154,-17.87917 -20.4151096,0 z"
     id="path654" /><path
     style="font-variation-settings:normal;opacity:1;vector-effect:none;fill:none;fill-opacity:1;stroke:#000;stroke-width:1;stroke-linecap:round;stroke-linejoin:round;stroke-miterlimit:4;stroke-dasharray:none;stroke-dashoffset:0;stroke-opacity:1;-inkscape-stroke:none;stop-color:#000000;stop-opacity:1"
     d="M 17.623364,6.7075054 V 14.71531"
     id="path657" /><path
     style="font-variation-settings:normal;opacity:1;vector-effect:none;fill:none;fill-opacity:1;stroke:#000;stroke-width:1;stroke-linecap:round;stroke-linejoin:round;stroke-miterlimit:4;stroke-dasharray:none;stroke-dashoffset:0;stroke-opacity:1;-inkscape-stroke:none;stop-color:#000000;stop-opacity:1"
     d="M 29.705776,6.7075054 V 32.383181"
     id="path659" /><path
     style="font-variation-settings:normal;opacity:1;vector-effect:none;fill:none;fill-opacity:1;stroke:#000;stroke-width:1;stroke-linecap:round;stroke-linejoin:round;stroke-miterlimit:4;stroke-dasharray:none;stroke-dashoffset:0;stroke-opacity:1;-inkscape-stroke:none;stop-color:#000000;stop-opacity:1"
     d="M 42.486485,19.545344 H 24.428401"
     id="path661" /><path
     style="font-variation-settings:normal;opacity:1;vector-effect:none;fill:none;fill-opacity:1;stroke:#000;stroke-width:1;stroke-linecap:round;stroke-linejoin:round;stroke-miterlimit:4;stroke-dasharray:none;stroke-dashoffset:0;stroke-opacity:1;-inkscape-stroke:none;stop-color:#000000;stop-opacity:1"
     d="M 5.5135133,19.545344 H 12.299697"
     id="path663" /><path
     style="font-variation-settings:normal;opacity:1;vector-effect:none;fill:none;fill-opacity:1;stroke:#000;stroke-width:1;stroke-linecap:round;stroke-linejoin:round;stroke-miterlimit:4;stroke-dasharray:none;stroke-dashoffset:0;stroke-opacity:1;-inkscape-stroke:none;stop-color:#000000;stop-opacity:1"
     d="M 29.774819,25.854276 H 42.486485"
     id="path665" /></svg>

<?xml version="1.0" encoding="UTF-8"?><svg id="a" xmlns="http://www.w3.org/2000/svg" viewBox="0 0 48 48"><defs><style>.j{stroke-width:2.0px;fill:none;stroke:#000;stroke-linecap:round;stroke-linejoin:round;}</style></defs><path id="b" class="j" d="m10.2233,32.3832h-3.6827c-.569,0-1.027-.4581-1.027-1.027V7.7345c0-.569.4581-1.027,1.027-1.027h34.9189c.569,0,1.027.4581,1.027,1.027v23.6216c0,.569-.4581,1.027-1.027,1.027h-15.2034"/><circle id="c" class="j" cx="18.3945" cy="20.8311" r="6.1622"/><path id="d" class="j" d="m8.0639,41.2925h20.4151c.9958-17.1476-21.2462-17.8792-20.4151,0Z"/><path id="e" class="j" d="m17.6234,6.7075v8.0078"/><path id="f" class="j" d="m29.7058,6.7075v25.6757"/><path id="g" class="j" d="m42.4865,19.5453h-18.0581"/><path id="h" class="j" d="m5.5135,19.5453h6.7862"/><path id="i" class="j" d="m29.7748,25.8543h12.7117"/></svg>
